public/assets/linkedin-icon.svg

<svg width="28" height="29" viewBox="0 0 28 29" fill="none" xmlns="http://www.w3.org/2000/svg">
  <path
    d="M6.2675 28.6253H0.4625V9.9316H6.2675V28.6253ZM3.36188 7.3816C1.50563 7.3816 0 5.8441 0 3.98785C1.32862e-08 3.09623 0.354197 2.24112 0.98467 1.61065C1.61514 0.980173 2.47025 0.625977 3.36188 0.625977C4.2535 0.625977 5.10861 0.980173 5.73908 1.61065C6.36955 2.24112 6.72375 3.09623 6.72375 3.98785C6.72375 5.8441 5.2175 7.3816 3.36188 7.3816ZM27.9937 28.6253H22.2013V19.5253C22.2013 17.3566 22.1575 14.5754 19.1831 14.5754C16.165 14.5754 15.7025 16.9316 15.7025 19.3691V28.6253H9.90375V9.9316H15.4712V12.4816H15.5525C16.3275 11.0129 18.2206 9.46285 21.045 9.46285C26.92 9.46285 28 13.3316 28 18.3566V28.6253H27.9937Z"
    fill="currentColor" />
</svg>

<svg xmlns="http://www.w3.org/2000/svg" width="28" height="29" fill="none" viewBox="0 0 28 29"><path fill="currentColor" d="M6.268 28.625H.463V9.932h5.805zM3.362 7.382C1.506 7.382 0 5.844 0 3.988a3.362 3.362 0 0 1 6.724 0c0 1.856-1.506 3.394-3.362 3.394m24.632 21.243H22.2v-9.1c0-2.168-.044-4.95-3.018-4.95-3.018 0-3.48 2.357-3.48 4.794v9.256h-5.8V9.932h5.568v2.55h.082c.774-1.47 2.668-3.02 5.492-3.02 5.875 0 6.955 3.87 6.955 8.895v10.268z"/></svg>
